X: 37445
T: Sliabh Lucan, The
R: polka
M: 2/4
K: Eminor
|:EB B>A|BG E/F/G|FA A>B|AG F/E/D|
EB B>A|BG Ee/f/|gf ed|1 BA AG/F/:|2 BA Ae/f/||
g2 g>f|gf e>f|gf ef|gb af|
g2 g>f|gf eg|fd de|fg a/g/f|
g2 g>f|gf e>f|gf ef|gb af|
bg af|g/f/e fd|eB c/B/A|BG AF||

